svg/fluentui-system-icons/ic_fluent_vehicle_car_profile_rtl_16_filled.svg

<svg width="16" height="16" viewBox="0 0 16 16" fill="none" xmlns="http://www.w3.org/2000/svg">
<path d="M4.22452 6.5L4.35882 6.45222L5.49412 4.32353C5.9286 3.50887 6.77672 3 7.7 3H10.5585C11.6346 3 12.5899 3.68857 12.9302 4.70943L13.4713 6.33268C14.383 6.71664 15 7.6158 15 8.63652V9.75C15 10.4597 14.5775 11.0708 13.9703 11.3454C13.8067 12.2853 12.9868 13 12 13C11.0681 13 10.285 12.3626 10.063 11.5H5.93699C5.71497 12.3626 4.93192 13 4 13C3.01321 13 2.19333 12.2853 2.02971 11.3454C1.4225 11.0708 1 10.4597 1 9.75V9.41126C1 8.35361 1.66556 7.4104 2.66203 7.05589L4.17188 6.51873V6.5H4.22452ZM11.9815 5.02566C11.7773 4.41314 11.2041 4 10.5585 4H9.5V6.5H12.473L11.9815 5.02566ZM5.46667 6.5H8.5V4H7.7C7.14603 4 6.63716 4.30532 6.37647 4.79412L5.46667 6.5ZM13 11C13 10.4477 12.5523 10 12 10C11.4477 10 11 10.4477 11 11C11 11.5523 11.4477 12 12 12C12.5523 12 13 11.5523 13 11ZM4 10C3.44772 10 3 10.4477 3 11C3 11.5523 3.44772 12 4 12C4.55229 12 5 11.5523 5 11C5 10.4477 4.55229 10 4 10Z" fill="#212121"/>
</svg>

<svg xmlns="http://www.w3.org/2000/svg" width="16" height="16"><path d="m4.225 6.5.134-.048 1.135-2.128A2.5 2.5 0 0 1 7.7 3h2.859a2.5 2.5 0 0 1 2.371 1.71l.541 1.623A2.5 2.5 0 0 1 15 8.637V9.75c0 .71-.422 1.32-1.03 1.595a2 2 0 0 1-3.907.155H5.937a2 2 0 0 1-3.907-.155A1.75 1.75 0 0 1 1 9.75v-.339c0-1.057.666-2 1.662-2.355l1.51-.537V6.5h.053Zm7.757-1.474A1.5 1.5 0 0 0 10.559 4H9.5v2.5h2.973l-.492-1.474ZM5.467 6.5H8.5V4h-.8a1.5 1.5 0 0 0-1.324.794L5.466 6.5ZM13 11a1 1 0 1 0-2 0 1 1 0 0 0 2 0Zm-9-1a1 1 0 1 0 0 2 1 1 0 0 0 0-2Z"/></svg>
